!!!!SEGMENT: pl-sa--530-a-ix-10--003_anonim--instrumental-piece.krn
!!!cenid: 17xx:2017
!!!COM: Anonim
!!!COM-rismID: pe30004985
!!!CDT:
!!!CNT:
!!!OTL: [Instrumental piece]
!!!PDT:
!!!AGN: Secular
!!!SMS-siglum: PL-SA
!!!SMS-shelfmark: 530/A IX 10
!!!SMS-shelfwork: 003 W
!!!SMS-variant:
!!!SMS-altvar:
!!!NIFC-rismSourceID: 1001092505
!!!NIFC-islandoraID:
!!!URL-pdf-islandora:
!!!URL-scan: https://bc.bdsandomierz.pl/dlibra/publication/1422/edition/1390/content @EN{Scan in the Sandomierz Diocese Digital Library} @PL{Skany w portalu Cyfrowa Biblioteka Diecezjalna w Sandomierzu}
!!!ONB-nifc: UWAGA: 3tium
!!!AIN: 2 violn
!!!key: G
**kern	**kern	**kern
*part3	*part2	*part1
*staff3	*staff2	*staff1
*I"Baſso	*I"Violino 2do	*I"Violino Primo
*I'bc	*I'vl 2	*I'vl 1
*	*Ivioln	*Ivioln
*	*ICstr	*ICstr
*IGcont	*	*
*clefF4	*clefG2	*clefG2
*Trd0c0	*	*
*k[f#]	*k[f#]	*k[f#]
*G:	*G:	*G:
*M3/4	*M3/4	*M3/4
=1	=1	=1
*all\right	*all\right	*all\right
!LO:TX:B:i:t=3tium	!LO:TX:B:i:t=3tium	!LO:TX:B:i:t=3tium
!LO:TX:B:i:t=Lente	!LO:TX:B:i:t=Lente	!LO:TX:B:i:t=Lente
8r	16B/LL	2.g/
.	16d/	.
8GG/L	16G/	.
.	16d/JJ	.
8BB/	16B/LL	.
.	16d/	.
8D/	16G/	.
.	16d/JJ	.
8BB/	16B/LL	.
.	16d/	.
8GG/J	16G/	.
.	16d/JJ	.
=2	=2	=2
8r	16c/LL	2.g/
.	16e/	.
8GG/L	16G/	.
.	16e/JJ	.
8C/	16c/LL	.
.	16e/	.
8E/	16G/	.
.	16e/JJ	.
8C/	16c/LL	.
.	16e/	.
8GG/J	16G/	.
.	16e/JJ	.
=3	=3	=3
!LO:TX:t=P:problem=mixed beam	!	!
8GG/L	8g/L	8g/L
8G\	16a/L	16a/L
.	16b/JJ	16b/JJ
8GG/	16cc\LL	16cc\LL
.	16b\	16dd\
8G\	16cc\	16ee\
.	16a\JJ	16ff#\JJ
8GG/	8b\L	8gg\L
8G\J	8b\J	8dd\J
=4	=4	=4
!LO:TX:t=P:problem=mixed beam	!	!
8GG/L	8ccT\L	8eeT\L
8G\	8b\J	8dd\J
8GG/	8r	8r
8G\	8b\L	8dd\L
8GG/	8g\	8b\
8G\J	8b\J	8dd\J
!LO:LB:g=original	!	!
=5	=5	=5
4D\	4aT/	4ccT\
4G\	4g/	4b\
4GG/	4ryy	4r
=6	=6	=6
*	*^	*
8G\L	8b/L	8g\L	4dd\
8G\	8b/	8g\	.
8G\	8b/	8g\	16b\LL
.	.	.	16cc\
8G\	8b/	8g\	16dd\
.	.	.	16ee\JJ
8G\	8b/	8g\	16dd\LL
.	.	.	16cc\
8G\J	8b/J	8g\J	16b\
.	.	.	16a\JJ
=7	=7	=7	=7
*2\right	*2\right	*	*
*tremolo	*tremolo	*tremolo	*
8G\L	8b/L	8g\L	8b\L
8G\	8b/	8g\	8g\J
8G\	8b/	8g\	8f#/L
8G\	8b/	8g\	8g/J
8G\	8b/	8g\	16a/LL
.	.	.	16b/J
8G\J	8b/J	8g\J	8g/J
*	*Xtremolo	*Xtremolo	*
=8	=8	=8	=8
!	!LO:TX:t=P:problem=takty 6-7 - repetycja	!	!LO:TX:t=P:problem=takty 6-7 - repetycja
8G\L	8b/Lyy	8g\Lyy	4dd\yy
8G\	8b/yy	8g\yy	.
8G\	8b/yy	8g\yy	16b\LLyy
.	.	.	16cc\yy
8G\	8b/yy	8g\yy	16dd\yy
.	.	.	16ee\JJyy
8G\	8b/yy	8g\yy	16dd\LLyy
.	.	.	16cc\yy
8G\J	8b/Jyy	8g\Jyy	16b\yy
.	.	.	16a\JJyy
=9	=9	=9	=9
*	*tremolo	*tremolo	*
8G\L	8b/Lyy	8g\Lyy	8b\Lyy
8G\	8b/yy	8g\yy	8g\Jyy
8G\	8b/yy	8g\yy	8f#/Lyy
8G\	8b/yy	8g\yy	8g/Jyy
8G\	8b/yy	8g\yy	16a/LLyy
.	.	.	16b/Jyy
8G\J	8b/Jyy	8g\Jyy	8g/Jyy
*Xtremolo	*Xtremolo	*Xtremolo	*
*	*v	*v	*
!	!LO:LB:g=original	!
=10	=10	=10
4GG/	8.b\L	8.dd\L
.	16a\Jk	16cc\Jk
4BB/	8g\L	8b\L
.	16dd\L	16ffn\L
.	16cc\JJ	16ee\JJ
.	8qqee/	8qgg/
4C/	8dd\L	8ff\L
.	16cc\L	16ee\L
.	16b\JJ	16dd\JJ
!	!	!LO:LB:g=original
=11	=11	=11
4AA/	8.cc\L	8.ee\L
.	16b\Jk	16dd\Jk
4C#X/	8a\L	8cc#X\L
.	16ee\L	16gg\L
.	16dd\JJ	16ff#\JJ
.	.	8qqaa/
4D/	8ee\L	8gg\L
.	16dd\L	16ff#\L
.	16cc#X\JJ	16ee\JJ
=12	=12	=12
*k[f#c#]	*k[f#c#]	*k[f#c#]
*M2/4	*M2/4	*M2/4
!LO:TX:B:i:t=Presto	!	!LO:TX:B:i:t=Preſto
4D\	8dd\L	8ff#/L 8a/ 8d/
.	8ff#\	8aa/J
4r	8dd\	8ff#/L 8a/ 8d/
.	8ff#\J	8aa/J
=13	=13	=13
4D\	8dd\L	8ff#\L
.	8a\J	8dd\J
4r	16cc#X\LL	16ee\LL
.	16ee\J	16gg\J
.	8dd\J	8ff#\J
=14	=14	=14
4D\	8dd\L	8ff#/L 8a/ 8d/
.	8ff#\	8aa/J
4r	8dd\	8ff#/L 8a/ 8d/
.	8ff#\J	8aa/J
=15	=15	=15
!	!LO:TX:t=P:problem=mixed beam	!
4D\	8dd\L	8ff#\L
.	8f#/J	8dd\J
4r	16e/LL	16cc#\LL
.	16g/J	16ee\J
.	8f#/J	8dd\J
=16	=16	=16
2AA/	8a/L 8e/	8cc#\L
.	8a/ 8e/	8dd\J
.	8a/ 8e/	16ee\LL
.	.	16gg\
.	8a/J 8e/	16ff#\
.	.	16ee\JJ
=17	=17	=17
2D\	8f#/L	8ff#\L
.	8a/	8dd\J
.	8f#/	16ee\LL
.	.	16gg\J
.	8a/J	8ff#\J
=18	=18	=18
2AA/	8f#/L	8cc#\L
.	8a/	8dd\J
.	8f#/	16ee\LL
.	.	16gg\
.	8a/J	16ff#\
.	.	16ee\JJ
=19	=19	=19
4D\	8dd\L	8ff#\L
.	8ff#\	8aa\
4r	8a\	8dd\
.	8dd\J	8ff#\J
!	!LO:LB:g=original	!
=20	=20	=20
4D\	8f#/L	8a/L
.	8f#/	8dd/
4r	8d/	8f#/
.	8f#/J	8a/J
!	!	!LO:LB:g=original
=21	=21	=21
!	!LO:TX:t=P:problem=mixed beam	!
8D\L	8d/L	8d/L
8d\	8dd\	8ff#/ 8a/
8D\	8d/	8ff#/ 8a/
8d\J	8dd\J	8ff#/J 8a/
=22	=22	=22
4D/	4ff#/ 4a/ 4d/	4ff#/ 4a/ 4d/
!LO:TX:b:t=Verte.	!	!
4r	4r	4r
==	==	==
*-	*-	*-
!!!system-decoration: [(s1,s2,s3)]
!!!ENC: Andrzej Gręziak
!!!END: 2021-05-28
!!!EED: Andrzej Borzym
!!!EEV: 2022-01-10
